Origami/16x16/apps/pattern-mate.svg

<svg width="16" height="16" version="1.1" viewBox="0 0 16 16" xmlns="http://www.w3.org/2000/svg">
 <g transform="matrix(.4 0 0 .4 -1.6 -1.6)">
  <circle cx="24" cy="24" r="20" style="fill:#7ea043"/>
 </g>
 <path d="m7.7415998 12.861839c-0.8402988-0.057342-1.6365875-0.340875-2.3860089-0.849586-0.4118022-0.279533-1.0773629-0.934899-1.0773629-1.060859 0-0.07089 0.062632-0.127436 0.323512-0.292045 0.1779318-0.112271 0.3443737-0.20413 0.3698718-0.20413 0.025511 0 0.2073187 0.154489 0.404041 0.343309 0.5363771 0.514829 1.0739511 0.819747 1.7885192 1.014474 0.2701386 0.07361 0.3934448 0.08434 0.9669918 0.08415 0.6058159-2.19e-4 0.686017-0.0082 1.0225804-0.101444 2.3549558-0.652721 3.5732938-3.2261566 2.5772228-5.4437482-0.441511-0.9829606-1.333821-1.7846332-2.3580973-2.1185744-1.474233-0.4806383-3.0726189-0.0748142-4.1359349 1.0500988-0.125521 0.1327905-0.2448198 0.2414375-0.2651079 0.2414375-0.0476317 0-0.6674306-0.3985409-0.7003754-0.4503515-0.0434526-0.0683362 0.0866963-0.2381863 0.4632864-0.6045976 0.5731031-0.5576133 1.1560165-0.9119814 1.9022579-1.1564324 0.9492714-0.3109578 2.0618876-0.3082475 3.0097802 0.00733 1.731743 0.5765448 3.010911 2.0768621 3.307115 3.878876 0.07523 0.4576794 0.05566 1.3649895-0.03873 1.7946433-0.233735 1.0640415-0.825013 2.0538895-1.624951 2.7202985-1.026668 0.855292-2.2117157 1.238379-3.5486092 1.14715zm-4.7415967-4.9043817c0-1.7396227 0.012328-3.1626451 0.027387-3.1622724 0.04807 0.00118 5.3115996 3.120607 5.3173638 3.1513219 0.00458 0.024382-5.1553624 3.0968412-5.2991029 3.1553262-0.036312 0.01478-0.045651-0.628457-0.045651-3.1443757zm4.6929118 3.0448147c-0.3439518-0.05225-0.7922178-0.210895-1.09235-0.386585-0.3149399-0.184359-0.751945-0.575396-0.751945-0.67285 0-0.07451 0.5949991-0.4732741 0.7065505-0.4735254 0.03709-7.32e-5 0.1390766 0.062905 0.2266333 0.1399798 0.682928 0.6011366 1.7674286 0.6504866 2.5297689 0.1151162 0.5642933-0.3962881 0.8929474-1.0283805 0.8906604-1.7129878-0.00193-0.6092815-0.18948-1.0685309-0.6065856-1.486157-0.5105017-0.5111421-1.2070266-0.7281959-1.878197-0.5852927-0.3379089 0.0719461-0.5849626 0.1859842-0.8695228 0.4013644-0.1232759 0.093306-0.2492961 0.169647-0.2800481 0.169647s-0.2051674-0.093109-0.3875866-0.2069083c-0.4262488-0.2659066-0.4283255-0.2920971-0.0486379-0.6134419 0.3203733-0.2711449 0.8780617-0.5643294 1.2508349-0.657583 1.2356877-0.3091205 2.559641 0.2071687 3.2668551 1.2739447 0.361276 0.5449519 0.513977 1.0640338 0.505869 1.7195983-0.0061 0.4955802-0.09426 0.8596957-0.318236 1.3147981-0.183627 0.3731108-0.488351 0.7561366-0.808011 1.0156296-0.2641337 0.21442-0.8597338 0.508949-1.1908557 0.588887-0.302581 0.07304-0.8560634 0.10029-1.1451964 0.05637z" style="fill:#ffffff"/>
</svg>

<?xml version="1.0" encoding="UTF-8" standalone="no"?>
<svg
   xmlns:dc="http://purl.org/dc/elements/1.1/"
   xmlns:cc="http://creativecommons.org/ns#"
   xmlns:rdf="http://www.w3.org/1999/02/22-rdf-syntax-ns#"
   xmlns:svg="http://www.w3.org/2000/svg"
   xmlns="http://www.w3.org/2000/svg"
   xmlns:sodipodi="http://sodipodi.sourceforge.net/DTD/sodipodi-0.dtd"
   xmlns:inkscape="http://www.inkscape.org/namespaces/inkscape"
   width="16"
   height="16"
   version="1.1"
   viewBox="0 0 16 16"
   id="svg8"
   sodipodi:docname="pattern-mate.svg"
   inkscape:version="0.92.2 5c3e80d, 2017-08-06">
  <metadata
     id="metadata14">
    <rdf:RDF>
      <cc:Work
         rdf:about="">
        <dc:format>image/svg+xml</dc:format>
        <dc:type
           rdf:resource="http://purl.org/dc/dcmitype/StillImage" />
      </cc:Work>
    </rdf:RDF>
  </metadata>
  <defs
     id="defs12" />
  <sodipodi:namedview
     pagecolor="#ffffff"
     bordercolor="#666666"
     borderopacity="1"
     objecttolerance="10"
     gridtolerance="10"
     guidetolerance="10"
     inkscape:pageopacity="0"
     inkscape:pageshadow="2"
     inkscape:window-width="1366"
     inkscape:window-height="713"
     id="namedview10"
     showgrid="false"
     inkscape:zoom="15.674954"
     inkscape:cx="2.0051982"
     inkscape:cy="8.1278475"
     inkscape:window-x="0"
     inkscape:window-y="27"
     inkscape:window-maximized="1"
     inkscape:current-layer="svg8" />
  <g
     transform="matrix(0.4,0,0,0.4,-1.6,-1.6)"
     id="g6">
    <circle
       style="fill:#7ea043"
       cx="24"
       cy="24"
       r="20"
       id="circle2" />
  </g>
  <path
     style="fill:#ffffff;stroke-width:0.03652072;fill-opacity:1"
     d="M 7.7415998,12.861839 C 6.901301,12.804497 6.1050123,12.520964 5.3555909,12.012253 4.9437887,11.73272 4.278228,11.077354 4.278228,10.951394 c 0,-0.07089 0.062632,-0.127436 0.323512,-0.292045 0.1779318,-0.112271 0.3443737,-0.20413 0.3698718,-0.20413 0.025511,0 0.2073187,0.154489 0.404041,0.343309 0.5363771,0.514829 1.0739511,0.819747 1.7885192,1.014474 0.2701386,0.07361 0.3934448,0.08434 0.9669918,0.08415 0.6058159,-2.19e-4 0.686017,-0.0082 1.0225804,-0.101444 C 11.5087,11.142987 12.727038,8.5695514 11.730967,6.3519598 11.289456,5.3689992 10.397146,4.5673266 9.3728697,4.2333854 7.8986367,3.7527471 6.3002508,4.1585712 5.2369348,5.2834842 5.1114138,5.4162747 4.992115,5.5249217 4.9718269,5.5249217 4.9241952,5.5249217 4.3043963,5.1263808 4.2714515,5.0745702 4.2279989,5.006234 4.3581478,4.8363839 4.7347379,4.4699726 5.307841,3.9123593 5.8907544,3.5579912 6.6369958,3.3135402 7.5862672,3.0025824 8.6988834,3.0052927 9.646776,3.3208702 c 1.731743,0.5765448 3.010911,2.0768621 3.307115,3.878876 0.07523,0.4576794 0.05566,1.3649895 -0.03873,1.7946433 -0.233735,1.0640415 -0.825013,2.0538895 -1.624951,2.7202985 -1.026668,0.855292 -2.2117157,1.238379 -3.5486092,1.14715 z M 3.0000031,7.9574573 c 0,-1.7396227 0.012328,-3.1626451 0.027387,-3.1622724 0.04807,0.00118 5.3115996,3.120607 5.3173638,3.1513219 C 8.3493339,7.9708888 3.1893915,11.043348 3.045651,11.101833 3.009339,11.116613 3,10.473376 3,7.9574573 Z m 4.6929118,3.0448147 c -0.3439518,-0.05225 -0.7922178,-0.210895 -1.09235,-0.386585 -0.3149399,-0.184359 -0.751945,-0.575396 -0.751945,-0.67285 0,-0.07451 0.5949991,-0.4732741 0.7065505,-0.4735254 0.03709,-7.32e-5 0.1390766,0.062905 0.2266333,0.1399798 0.682928,0.6011366 1.7674286,0.6504866 2.5297689,0.1151162 C 9.8758659,9.3281195 10.20452,8.6960271 10.202233,8.0114198 10.200303,7.4021383 10.012753,6.9428889 9.5956474,6.5252628 9.0851457,6.0141207 8.3886208,5.7970669 7.7174504,5.9399701 7.3795415,6.0119162 7.1324878,6.1259543 6.8479276,6.3413345 c -0.1232759,0.093306 -0.2492961,0.169647 -0.2800481,0.169647 -0.030752,0 -0.2051674,-0.093109 -0.3875866,-0.2069083 C 5.7540441,6.0381666 5.7519674,6.0119761 6.131655,5.6906313 6.4520283,5.4194864 7.0097167,5.1263019 7.3824899,5.0330483 8.6181776,4.7239278 9.9421309,5.240217 10.649345,6.306993 c 0.361276,0.5449519 0.513977,1.0640338 0.505869,1.7195983 -0.0061,0.4955802 -0.09426,0.8596957 -0.318236,1.3147981 -0.183627,0.3731108 -0.488351,0.7561366 -0.808011,1.0156296 -0.2641337,0.21442 -0.8597338,0.508949 -1.1908557,0.588887 -0.302581,0.07304 -0.8560634,0.10029 -1.1451964,0.05637 z"
     id="path847"
     inkscape:connector-curvature="0"
     sodipodi:nodetypes="ssscssscssssscsssssssscccsssscsscsssssssssssss" />
</svg>
